storage/app/icons/phosphoricons/duotone/book-duotone.svg

<svg xmlns="http://www.w3.org/2000/svg" fill="currentColor" viewBox="0 0 256 256"><path d="M208 32v160H72a24 24 0 0 0-24 24V56a24 24 0 0 1 24-24Z" opacity=".2"/><path d="M208 24H72a32 32 0 0 0-32 32v168a8 8 0 0 0 8 8h144a8 8 0 0 0 0-16H56a16 16 0 0 1 16-16h136a8 8 0 0 0 8-8V32a8 8 0 0 0-8-8m-8 160H72a31.8 31.8 0 0 0-16 4.29V56a16 16 0 0 1 16-16h128Z"/></svg>

<svg xmlns="http://www.w3.org/2000/svg" viewBox="0 0 256 256" fill="currentColor"><path d="M208,32V192H72a24,24,0,0,0-24,24V56A24,24,0,0,1,72,32Z" opacity="0.2"/><path d="M208,24H72A32,32,0,0,0,40,56V224a8,8,0,0,0,8,8H192a8,8,0,0,0,0-16H56a16,16,0,0,1,16-16H208a8,8,0,0,0,8-8V32A8,8,0,0,0,208,24Zm-8,160H72a31.82,31.82,0,0,0-16,4.29V56A16,16,0,0,1,72,40H200Z"/></svg>
